!!!OTL-incipit: EIN JAEGER AUS KURPFALZ
!!!ARE: Europa, Mitteleuropa, Deutschland, Schwaben; Rheinland; Oberpfalz
!!!SCT: Z0179
!!!TXL: @@DE
!!!YEM: Copyright 1995, estate of Helmut Schaffrath.
**kern	**text
*ICvox	*
*M2/4	*
*k[f#]	*
*G:	*
!LO:TX:a:t=Lustig, doch nicht zu geschwind.	!
!LO:TX:a:t=Schwaben und Rheinland. Ober-Pfälʒeriſch.	!
{8d	Ein
=1	=1
8d	Jä-
8b/	-ger
8b/	aus
8b/	Kur-
=2	=2
4.b}	-pfalʒ,
{8dd	der
=3	=3
8dd	rei-
8cc/	-tet
8cc/	durch
8b/	den
=4	=4
8b/	grünen
8a	.
8a}	Wald,
{8g	er
=5	=5
8f#	rei-
8a	-tet
8a	hin
8a	und
=6	=6
4.a}	her,
{16ddL	gleich
16ccJ	.
=7	=7
8b/	wie
8b/	es
8a	ihm
8a	ge-
=8	=8
4g	-fällt.
4r}	.
=9	=9
{4.dd	Ju
8cc/	ju
=10	=10
4.b/}	ju,
{8dd	ja
=11	=11
8gg	lu-
8dd	-ſtig
8cc/	iſt
8b/	die
=12	=12
8b/	Jä-
8a	-ge-
8a}	-rei
{8a	all-
=13	=13
8b/	-hier
16bL	auf
16ccJ	.
8a	grü-
16aL	-ner
16bJ	.
=14	=14
4g	Haid'.
8r}	.
==	==
!!!AGN: Soldaten -, Jaeger - Lied
!!!ONB: ESAC (Essen Associative Code) Database: ZUCCAL
!!!AMT: simple duple
!!!AIN: vox
!!!EED: Helmut Schaffrath
!!!EEV: 1.0
!!@@COMMENT:"In original two voices"
!!@@END:
!!@@COMMENT:"In original with accompagnement"
!!@@END:
!!!GTL: III. Soldaten-, Jaeger-, Schiffer-, Fuhrmanns- und Handwerks-Lieder.
!!!URL-scan: https://www.digitale-sammlungen.de/de/view/bsb11160571?page=334
!!!ENC: Anna Maria Matuszewska
!!!EEV: 2025/01/28
*-	*-
